assets/icon/bigTichuNo.svg

<?xml version="1.0" encoding="UTF-8" standalone="no"?>
<!DOCTYPE svg PUBLIC "-//W3C//DTD SVG 1.1//EN" "http://www.w3.org/Graphics/SVG/1.1/DTD/svg11.dtd">
<svg width="100%" height="100%" viewBox="0 0 512 512" version="1.1" xmlns="http://www.w3.org/2000/svg" xmlns:xlink="http://www.w3.org/1999/xlink" xml:space="preserve" xmlns:serif="http://www.serif.com/" style="fill-rule:evenodd;clip-rule:evenodd;stroke-linecap:round;stroke-miterlimit:10;">
    <g>
        <rect id="canvas_background" x="-1" y="-1" width="582" height="402" style="fill:none;"/>
    </g>
    <g>
        <path id="svg_1" d="M87.49,380C88.68,375.62 86.05,369.53 83.54,365.14C82.758,363.831 81.911,362.563 81,361.34C59.475,328.696 47.999,290.441 48,251.34C47.65,139.09 140.73,48 255.83,48C356.21,48 440,117.54 459.58,209.85C462.514,223.536 463.995,237.493 464,251.49C464,363.9 374.51,456.42 259.41,456.42C241.11,456.42 216.41,451.82 202.94,448.05C189.47,444.28 176.02,439.28 172.55,437.94C169.001,436.576 165.232,435.874 161.43,435.87C157.277,435.854 153.164,436.681 149.34,438.3L81.51,462.78C80.024,463.42 78.449,463.832 76.84,464C71.585,463.984 67.269,459.655 67.269,454.4C67.269,454.353 67.269,454.307 67.27,454.26C67.353,453.145 67.555,452.042 67.87,450.97L87.49,380Z" style="fill:none;fill-rule:nonzero;stroke:white;stroke-width:32px;"/>
        <g id="svg_2" transform="matrix(1.78939,0,0,1.51718,131.803,394.098)">
            <path d="M136,-163.378L136,-134.449L87.12,-134.449L87.12,0L52.76,0L52.76,-134.449L3.658,-134.449L3.658,-163.378L136,-163.378Z" style="fill:white;fill-rule:nonzero;stroke:white;stroke-width:0.6px;stroke-linecap:butt;stroke-linejoin:round;stroke-miterlimit:2;"/>
        </g>
    </g>
</svg>

<svg width="512" height="512" xmlns="http://www.w3.org/2000/svg">
 <title>ionicons-v5-s</title>

 <g>
  <title>background</title>
  <rect fill="none" id="canvas_background" height="402" width="582" y="-1" x="-1"/>
 </g>
 <g>
  <title>Layer 1</title>
  <path id="svg_1" fill="none" stroke="#000" stroke-linecap="round" stroke-miterlimit="10" stroke-width="32px" d="m87.49,380c1.19,-4.38 -1.44,-10.47 -3.95,-14.86a44.86,44.86 0 0 0 -2.54,-3.8a199.81,199.81 0 0 1 -33,-110c-0.35,-112.25 92.73,-203.34 207.83,-203.34c100.38,0 184.17,69.54 203.75,161.85a199,199 0 0 1 4.42,41.64c0,112.41 -89.49,204.93 -204.59,204.93c-18.3,0 -43,-4.6 -56.47,-8.37s-26.92,-8.77 -30.39,-10.11a31.09,31.09 0 0 0 -11.12,-2.07a30.71,30.71 0 0 0 -12.09,2.43l-67.83,24.48a16,16 0 0 1 -4.67,1.22a9.6,9.6 0 0 1 -9.57,-9.74a15.85,15.85 0 0 1 0.6,-3.29l19.62,-70.97z"/>
  <text font-weight="bold" stroke="null" transform="matrix(1.7893947725325203,0,0,1.5171834806178026,-193.526806328536,-183.05262950789873) " xml:space="preserve" text-anchor="start" font-family="Helvetica, Arial, sans-serif" font-size="227" id="svg_2" y="380.409371" x="181.810176" stroke-opacity="null" stroke-width="0" fill="#000000">T</text>
 </g>
</svg>
